X: 17782
T: Honeymoon, The
R: reel
M: 4/4
K: Gmajor
|:dc|BG G/F/G DG G/F/G|B/c/d ef gedc|BG G/F/G DG G/F/G|BcdB Ad^cd|
BG G/F/G DG G/F/G|B/c/d ef g3 a|bgaf gedB|1 e/f/g dB A2:|2 e/f/g dB A2 B/c/d||
|:e3 f edBA|B/c/d ef gedc|BG G/F/G DG G/F/G|BcdB A2 B/c/d|
e3 f edBA|B/c/d ef g3 a|bgaf gedB|1 e/f/g dB A2 gf:|2 ezdB A3||

